X:1
T:Title
%%score { 1 | 2 }
L:1/8
M:9/8
K:Eb
V:1 treble nm="Grand Piano"
V:2 bass 
V:1
 z3 z3[Q:1/4=100] EFG | B3 B3 [Ec][Ed][Ee] | B3 G2 G GFE | B3 G2 G G[FA][EG] | [DF]6 EFG | %5
 B3 B3 [Ec][Ed][Ee] | [EB]3 [EG]2 [GB] [GB][Ac][GB] | G3 E2 E [DF][EG][DF] |[M:5/8] E-E- E3 | %9
[M:2/4] B,B, EF |[M:9/8] G3 G2 F EG[Ac] | [GB]3- [GB]2 B, B,EG | [Ec]3 B2 G G[FA][EG] | %13
 [DF]3- [DF]2 B, B,EF | G3 G3 [Ec][EA][Ec] |[M:19/16] B/-B/-B/-B/-B/-B/-B-<BBe3/2Bc | %16
[M:9/8] B3 G2 [B,E] [A,DF][B,EG][A,DF] |[M:3/4] [G,B,E]6 |] %18
V:2
 z3 z3 [E,G,][E,A,E][E,B,E] | [E,G,E]3 [E,G,E]3 [A,,A,][B,,A,][C,A,] | %2
 [E,G,E]3 [E,B,E]2 [E,B,E] [E,B,E][E,A,E][E,G,] | [E,G,E]3 [E,B,E]2 [E,B,E] [E,B,E][D,B,][E,B,] | %4
 [B,,B,]6 [E,G,][E,A,E][E,B,E] | [E,G,E]3 [E,G,E]3 [A,,A,][B,,A,][C,A,] | %6
 [E,G,]3 [E,B,]2 [E,E] [E,E][E,E][E,E] | [E,B,E]3 [E,G,B,]2 [E,G,B,] [B,,A,][B,,B,][B,,A,] | %8
[M:5/8] [E,G,B,]-[E,G,B,]- [E,G,B,]3 |[M:2/4] [E,G,][E,G,] [E,G,B,][E,A,B,] | %10
[M:9/8] [E,B,E]3 [E,B,E]2 [E,A,E] [E,G,][E,B,E][E,E] | %11
 [E,E]3- [E,E]2 [E,G,] [E,G,][E,G,B,][E,B,E] | [A,,A,]3 [E,G,E]2 [E,B,E] [E,B,E][D,B,][E,B,] | %13
 [B,,B,]3- [B,,B,]2 [E,G,] [E,G,][E,G,B,][E,A,B,] | [E,B,E]3 [E,B,E]3 [A,,A,][C,A,][A,,A,] | %15
[M:19/16] [E,G,E]/-[E,G,E]/-[E,G,E]/-[E,G,E]/-[E,G,E]/-[E,G,E]/-[E,G,E]-<[E,G,E][E,G,E][E,G,E]3/2[E,G,E][E,A,E] | %16
[M:9/8] [E,G,E]3 [E,B,E]2 G,, B,,B,,B,, |[M:3/4] E,6 |] %18

